.local/share/icons/Gruvbox-Plus-Dark/actions/16/object-tweak-shrink.svg

<svg width="16" height="16" version="1.1" xmlns="http://www.w3.org/2000/svg">
  <defs>
    <style id="current-color-scheme" type="text/css">.ColorScheme-Text { color:#ebdbb2; } .ColorScheme-Highlight { color:#458588; }</style>
  </defs>
  <path class="ColorScheme-Text" d="m4 10h1v1h-1zm3 0h1v1h-1zm3 0h1v1h-1zm1-3h1v1h-1zm-3 0h1v1h-1zm-3 0h1v1h-1zm5-3h1v1h-1zm-6 0h1v1h-1zm3 0h1v1h-1zm0-3h2v2h-2zm0 12h2v2h-2zm-6-6h2v2h-2zm12 0h2v2h-2zm0-6h2v2h-2zm-3 0h2v2h-2zm-6 0h2v2h-2zm-3 0h2v2h-2zm12 3h2v2h-2zm-12 0h2v2h-2zm12 6h2v2h-2zm-12 0h2v2h-2zm12 3h2v2h-2zm-3 0h2v2h-2zm-6 0h2v2h-2zm-3 0h2v2h-2z" fill="currentColor"/>
</svg>

<svg xmlns="http://www.w3.org/2000/svg" width="16" height="16" version="1.1">
 <defs>
  <style id="current-color-scheme" type="text/css">
   .ColorScheme-Text { color:#565656; } .ColorScheme-Highlight { color:#4285f4; }
  </style>
 </defs>
 <path style="fill:currentColor" class="ColorScheme-Text" d="M 4,10 H 5 V 11 H 4 Z M 7,10 H 8 V 11 H 7 Z M 10,10 H 11 V 11 H 10 Z M 11,7 H 12 V 8 H 11 Z M 8,7 H 9 V 8 H 8 Z M 5,7 H 6 V 8 H 5 Z M 10,4 H 11 V 5 H 10 Z M 4,4 H 5 V 5 H 4 Z M 7,4 H 8 V 5 H 7 Z M 7,1 H 9 V 3 H 7 Z M 7,13 H 9 V 15 H 7 Z M 1,7 H 3 V 9 H 1 Z M 13,7 H 15 V 9 H 13 Z M 13,1 H 15 V 3 H 13 Z M 10,1 H 12 V 3 H 10 Z M 4,1 H 6 V 3 H 4 Z M 1,1 H 3 V 3 H 1 Z M 13,4 H 15 V 6 H 13 Z M 1,4 H 3 V 6 H 1 Z M 13,10 H 15 V 12 H 13 Z M 1,10 H 3 V 12 H 1 Z M 13,13 H 15 V 15 H 13 Z M 10,13 H 12 V 15 H 10 Z M 4,13 H 6 V 15 H 4 Z M 1,13 H 3 V 15 H 1 Z"/>
</svg>
